!!!!SEGMENT: pl-wtm--r-143-m_moniuszko-stanislaw--vilanella.krn
!!!cenid: 18xx:1675
!!!COM: Moniuszko, Stanisław
!!!COM-rismid: pe30008351
!!!CDT: 1819/05/05-1872/06/04
!!!CNT: Polish
!!!OTL: Vilanella
!!!PDT:
!!!AGN: Secular
!!!SMS-siglum: PL-Wtm
!!!SMS-shelfmark: R 143/M
!!!SMS-shelfwork: W
!!!SMS-variant:
!!!SMS-altvar:
!!!NIFC-rismid: 1001099303
!!!URL-scan: http://repozytorium.nifc.pl/skany/pl-wtm-nut--r143m
!!!ONB-nifc:
!!!key:
**kern	**kern	**dynam
*part2	*part1	*part1
*staff2	*staff1	*
*Ipiano	*Ipiano	*
*I"Piano	*I"Piano	*
*clefF4	*clefG2	*
*k[b-e-a-d-g-]	*k[b-e-a-d-g-]	*
*D-:	*D-:	*
*M3/4	*M3/4	*
=1	=1	=1
*2\right	*2\right	*
!	!LO:TX:a:t=P:problem:all\right:global	!
!	!LO:TX:a:t=P:problem:niektóre oznaczenia i korekty zostały wprowadzone czerwonym atramentem	!
!	!LO:TX:i:a:t=ad libit	!LO:DY:b:rj
2.r	8.a-\L	mf
.	16dd-\Jk	.
.	8.dd-\L	.
.	16ee-\Jk	.
.	8.ee-\L	.
.	16ff\Jk	.
=2	=2	=2
2.r	8.ff\L	.
.	16aa-\Jk	.
.	(>[<2aa-\	.
=3	=3	=3
2.r	4.aa-\]	.
.	8ff\L	.
.	8qff/)	.
.	8ee-\	.
.	8dd-\J	.
=4	=4	=4
2.r	(>16ee-\KL	.
.	8.a-\J)	.
.	[>2a-^>\	.
=5	=5	=5
2.r	8.a-\L]	.
.	16dd-\Jk	.
.	8.dd-\L	.
.	16ee-\Jk	.
.	8.ee-\L	.
.	16ff\Jk	.
=6	=6	=6
2.r	8ff\L	.
.	8ggn\J	.
.	8qbb-/	.
.	(>[>2aa-\	.
=7	=7	=7
2.r	8aa-\L]	.
.	8ff\J)	.
.	8r	.
!	!LO:TX:i:b:t=ralent	!
.	8ff\	.
.	8qff/	.
.	8.ee-\L	.
.	16dd-\Jk	.
=8	=8	=8
2.r;>	2.dd-;>\	.
!!LO:LB:g=original
=9	=9	=9
*^	*	*
*2\right	*2\right	*	*
!	!	!LO:TX:i:a:t=una corda.:color=red	!
!	!	!LO:TX:i:a:t=Moderato	!LO:DY:b:rj
*ped	*	*	*
[>2.f [>2.d- [>2.A-\	[<2.D-\	8.a-\L	pp
.	.	16dd-\Jk	.
.	.	8.dd-\L	.
.	.	16ee-\Jk	.
.	.	8.ee-\L	.
.	.	16ff\Jk	.
=10	=10	=10	=10
2.f] 2.d-] 2.A-/]	4D-\]	8.ff\L	.
*Xped	*	*	*
.	.	16aa-\Jk	.
.	4r	(>[>2aa-\	.
*ped	*	*	*
.	[<4D-^>\	.	.
=11	=11	=11	=11
2.f 2.d- 2.A-/	2.D-\_<	4.aa-\]	.
.	.	8ff\L)	.
*Xped	*	*	*
.	.	8qff/	.
.	.	8ee-\	.
.	.	8dd-\J	.
=12	=12	=12	=12
*ped	*	*	*
2.g- 2.c 2.A-/	2D-\]	(16ee-\KL	.
.	.	8.a-\J)	.
*Xped	*	*	*
.	.	2a-\	.
*ped	*	*	*
.	[>4D-^>\	.	.
=13	=13	=13	=13
4r	2.D-\]	8.a-\L	.
.	.	16dd-\Jk	.
[>2f [>2d- [<2A-/	.	8.dd-\L	.
.	.	16ee-\Jk	.
.	.	8.ee-\L	.
.	.	16ff\Jk	.
=14	=14	=14	=14
2f] 2d-] 2A-/]	2.D-\	(>8ff\L	.
*Xped	*	*	*
.	.	8bb-\J)	.
*ped	*	*	*
.	.	[>2aa-\	.
[>4f [>4d- [<4A-^/	.	.	.
=15	=15	=15	=15
*Xped	*	*	*
2f] 2d-] 2A-/]	4r	4.aa-\]	.
*ped	*	*	*
.	4DD-/	.	.
.	.	8ff\L	.
.	.	8qff/	.
4e- 4A- 4G-/	4r	8.ee-\	.
*Xped	*	*	*
.	.	16dd-\Jk	.
*v	*v	*	*
=16	=16	=16
2.d- 2.A- 2.F;>/	2.ff;>\	.
!!LO:LB:g=original
=17	=17	=17
!	!LO:TX:i:a:t=Allegretto	!
!	!LO:TX:i:b:t=senza sordini:color=red	!
4r	(>8ff\L	.
.	8gg-\J)	.
*ped	*	*
(4e- 4An 4F\	4.gg-^>\	.
*Xped	*	*
8C/)	.	.
8r	8ff\	.
=18	=18	=18
4r	(>8ff\L	.
.	8ddd-\J)	.
*ped	*	*
(4d- 4B- 4F\	4.ddd-^>\	.
*Xped	*	*
8BB-/)	.	.
8r	8ccc\	.
=19	=19	=19
!	!LO:TX:b:B:t=A=:color=red	!
4r	(>8ccc\L	.
.	8bb-\J)	.
.	8qccc/	.
*ped	*	*
(>4B- 4En 4D-\	(>8bb-\L	.
.	8aan\	.
*Xped	*	*
8GGn/)	8bb-\	.
8r	8ccc\J	.
=20	=20	=20
4r	8ddd-^>\L	.
.	8ff\J)	.
*ped	*	*
(>4d- 4A- 4F\	2aa-\	.
*Xped	*	*
8AA-/)	.	.
8r	.	.
=21	=21	=21
4r	(>8aa-\L	.
.	8bb-\J)	.
*ped	*	*
(>4e- 4c 4G-\	4.bb-^>\	.
*Xped	*	*
8AA-/)	.	.
8r	8aa-\	.
=22	=22	=22
4r	(>8aa-\L	.
.	8ddd-\J)	.
*ped	*	*
4f 4d- 4A- 4F\	4.ddd-^>\	.
[>4f [>4d- [>4B-\	.	.
.	8ff\	.
=23	=23	=23
*Xped	*	*
4f] 4d-] 4B-\]	(>8ff\L	.
.	8ee-\J)	.
.	8qff/	.
4e- 4B- 4G-\	(>8ee-\L	.
.	8dd-\	.
!LO:TX:a:t=P:problem:brak zakończenia ligatur	!	!
[>4g- [>4e- [>4A-\	8cc\	.
.	8aa-\J)	.
!!LO:LB:g=original
=24	=24	=24
*^	*	*
4g-] 4e-] 4A-\]	4ryy	(>8aa-\L	.
.	.	8dd-\J	.
*ped	*	*	*
4f: 4A-:/	(>4D-:\	2ff\)	.
*Xped	*	*	*
4rd	8C\L	.	.
.	8BB-\J)	.	.
*v	*v	*	*
=25	=25	=25
4AAn/	(>8ff\L	.
.	8gg-\J)	.
.	16qqgg-/LL	.
.	16qqaa-/JJ	.
4e- 4c 4F\	4.gg-^>\	.
(<4AA/	.	.
!	!LO:TX:b:B:t==B:color=red	!
.	8ff\	.
=26	=26	=26
4BB-/)	(>8ff\L	.
.	8ddd-\J)	.
4d- 4B- 4F\	4.ddd-^>\	.
!LO:N:vis=xstem	!	!
(<4AA-@/	.	.
.	8ccc\	.
!LO:TX:b:t=4:color=blue	!	!
=27	=27	=27
4GGn/)	(>8ccc\L	.
.	8bb-\J)	.
.	16qqbb-/LL	.
.	16qqccc/JJ	.
4d- 4B- 4En\	(>8bb-\L	.
.	8aan\	.
(<4GG/	8bb-\	.
.	8ccc\J)	.
=28	=28	=28
.	8qeee-/	.
4AA-X/)	(>8ddd-\L	.
.	8ff\J)	.
*	*2\left	*
4d- 4A- 4F\	2aa-\	.
(<4AA-/	.	.
=29	=29	=29
4GG-X/)	(>8aa-\L	.
.	8bb-\J)	.
.	8qccc/	.
4e- 4c 4A- 4E-\	4.bb-\	.
(<4GG-/	.	.
.	8aa-\	.
=30	=30	=30
*ped	*	*
4FF/)	(>8aa-\L	.
.	8fff\J)	.
!	!	!LO:DY:b
4a-: 4d-: 4A-: 4F:\	[>4.fff;>\	sf
*Xped	*	*
4r;>	.	.
.	8qqfff/L]	.
.	8qqeeen/	.
.	8qqeee-X/	.
.	8qqddd-/	.
.	8qqccc/	.
.	8qqbb-/	.
.	8qqaa-/	.
.	8qqggn/	.
.	8qqgg-X/J	.
.	8ff\	.
!!LO:LB:g=original
=31	=31	=31
4GG-/	(>8ff\L	.
.	8ee-\J)	.
.	8qff/	.
4e-: 4B-: 4G-:\	(>8ee-\L	.
.	8dd-X\	.
4r	8ee-\	.
.	8b-\J)	.
=32	=32	=32
4AA-/	(>8dd-\L	.
.	8cc\J)	.
.	8qdd-/	.
4g-: 4c: 4A-: 4E-:\	(>8cc\L	.
.	8b-X\	.
4r	8cc\	.
.	8aa-\J)	.
=33	=33	=33
*ped	*	*
(>8fL 8d- 8A-\	4.dd-\	.
8D-\J	.	.
*Xped	*	*
8f 8d- 8A-\)	.	.
8r	(>8ff\L	.
*ped	*	*
4D-^>\	8aa-\	.
.	8bb-\J	.
=34	=34	=34
!	!LO:TX:a:B:t=C=:color=red	!
(>8fL 8d- 8A-\	8aa-\L	.
8D-\J	8ff\	.
*Xped	*	*
8f 8d- 8A-\)	8aa-\	.
8r	8bb-\)	.
*ped	*	*
4D-^>\	(>8bb-\	.
.	8ddd-\J)	.
=35	=35	=35
(>8fL 8d- 8A-\	(>4.ddd-\	.
8D-\J	.	.
*Xped	*	*
8f 8d- 8A-\)	.	.
8r	8ccc\L	.
*ped	*	*
4D-^>\	8aa-\	.
.	8bb-\J	.
=36	=36	=36
(>8g-L 8c 8A-\	4.aa-\	.
8D-\J	.	.
*Xped	*	*
8g- 8c 8A-\)	.	.
8r	8gg-\L	.
*ped	*	*
4D-^>\	8ee-\	.
.	8ff\J)	.
=37	=37	=37
(>8fL 8d- 8A-\	(>4.dd-\	.
8D-\J	.	.
*Xped	*	*
8f 8d- 8A-\)	.	.
8r	8ff\L	.
*ped	*	*
4D-^>\	8gg-\	.
.	8bb-\J	.
=38	=38	=38
.	16qqaa-/LL	.
.	16qqbb-/JJ	.
(>8fL 8d- 8A-\	8aa-\L	.
8D-\J	8ff\)	.
*Xped	*	*
8f 8d- 8A-\)	(>8aa-\	.
8r	8bb-\)	.
*ped	*	*
4D-^>\	(>8bb-\	.
.	8ddd-\J)	.
!!LO:PB:g=original
=39	=39	=39
.	8qddd-/	.
(>8fL 8d- 8A-\	(>4.fff^>\	.
8D-\J	.	.
*Xped	*	*
8f 8d- 8A-\)	.	.
8r	8ddd-\L	.
*ped	*	*
4DD-^</	8aa-\	.
.	8bb-\J	.
=40	=40	=40
(>8g-L 8e- 8A-\	4.ddd-^>\	.
8D-\J	.	.
*Xped	*	*
8g- 8e- 8A-\)	.	.
8r	8ccc\L	.
*ped	*	*
4D-^>\	8bb-\	.
!	!LO:TX:a:B:t==D.:color=red	!
.	8aa-\J)	.
=41	=41	=41
*	*^	*
!LO:TX:a:t=P:problem:pedalizacja w taktach 41-44 przekreślona	!	!	!
(>8fL 8d- 8A-\	[>2.ddd-/	4r	.
8D-\J	.	.	.
8f 8d- 8A-\)	.	8r	.
8r	.	8aa-\	.
4D-^>\	.	(>8aa-\L	.
.	.	8dd-\J)	.
=42	=42	=42	=42
(>8fL 8d- 8A-\	2.ddd-/_>	4.dd-\	.
8D-\J	.	.	.
8f 8d- 8A-\)	.	.	.
8r	.	8aa-\	.
4DD-^</	.	(>8aa-\L	.
.	.	8dd-\J)	.
=43	=43	=43	=43
*	*	*2\right	*
(>8fL 8d- 8A-\	4ddd-/]	[<2.dd-\	.
8D-\J	.	.	.
8f 8d- 8A-\)	8rgg	.	.
8r	8ddd-/L	.	.
4D-^>\	8.ddd-/	.	.
.	16aa-/Jk	.	.
=44	=44	=44	=44
(>8fL 8d- 8A-\	4.aa-/	2.dd-\]	.
8D-\J	.	.	.
8f 8d- 8A-\)	.	.	.
8r	8ddd-/L	.	.
8DD-^</	(<8.ddd-;>/	.	.
8r;>	.	.	.
.	16dd-/Jk)	.	.
*kcancel	*kcancel	*	*
*	*v	*v	*
!!LO:LB:g=original
=45	=45	=45
*k[f#c#g#]	*k[f#c#g#]	*
!	!LO:TX:i:a:t=piu Allegro.	!LO:DY:b=2:rj
!	!LO:TX:a:t=P:problem:znaki przykluczowe:bn, een, an, ddn, f#, cc#, g#	!
!	!LO:TUP:a	!
8EE 8AAA/	(>12cc#\L	ppp
*Xped	*	*
.	12dd\	.
8r	.	.
.	12cc#\J	.
4c# 4A 4E\	8b#X\L	.
.	8cc#\	.
4e 4c# 4E^>\	8ee\	.
.	8dd\J	.
=46	=46	=46
*ped	*	*
8E 8AA/	8cc#\L	.
8r	8b\J)	.
.	8qcc#/	.
*Xped	*	*
4d 4G# 4E\	8.b/L	.
.	16a#X/Jk	.
4e 4E^>\	4b^</	.
=47	=47	=47
*ped	*Xtuplet	*
8E 8AA/	(>12cc#\L	.
.	12dd\	.
8r	.	.
.	12cc#\J	.
4c# 4A 4E\	8b#X\L	.
*Xped	*	*
.	8cc#\	.
4e 4E^>\	8.ff#\	.
.	16ee\Jk)	.
=48	=48	=48
*ped	*	*
8E 8AA/	(>8ee\L	.
8r	8b\J)	.
.	8qcc#/	.
4d 4G# 4E\	8.b/L	.
*Xped	*	*
.	16a#X/Jk	.
4e 4E^>\	4b/	.
!LO:TX:b:t=5:color=blue	!	!
=49	=49	=49
*ped	*	*
4AA/	8.cc#\L	.
.	16dd#X\Jk	.
*Xped	*	*
4c# 4E\	8.dd#\L	.
.	16ee\Jk	.
(4AA/	8.ee\L	.
.	16ff#\Jk	.
=50	=50	=50
*ped	*	*
4GG#/)	8.ff#\L	.
.	16gg#\Jk	.
*Xped	*	*
4c# 4E\	8.gg#\L	.
.	16aa\Jk	.
*ped	*	*
!LO:TX:b:i:t=5.I	!LO:TX:a:t=P:problem:brak rozpoczęcia łuku	!
(<4GG#/	(>[>4aa^^>\	.
!!LO:LB:g=original
=51	=51	=51
8GGG#/)	8aa\L]	.
8r	8gg#/	.
*Xped	*	*
4d#X 4B#X 4G# 4F#\	8ff##X\	.
.	8gg#\	.
4GG#/	8cc##X\	.
.	8dd#X\J	.
=52	=52	=52
8C#/	8ff#\L	.
8r	8ee\	.
4c# 4G# 4E\	8dd#X\	.
.	8ee\	.
4dn 4G# 4E 4BB\	8b\	.
.	8b#X\J)	.
=53	=53	=53
*	*tuplet	*
!	!LO:TUP:a	!
8AA/	(>12cc#\L	.
.	12dd\	.
8r	.	.
.	12cc#\J	.
*	*Xtuplet	*
4c# 4A 4E\	8b#X\L	.
.	8cc#\	.
4e 4E^>\	8.ee\	.
.	16dd\Jk	.
=54	=54	=54
8AA/	8cc#\L	.
8r	8b\J)	.
.	8qcc#/	.
4d 4G# 4E\	8.b/L	.
.	16a#X/Jk	.
4e 4E^>\	4b^</	.
=55	=55	=55
8AA/	(>12cc#\L	.
.	12dd\	.
8r	.	.
.	12cc#\J	.
4c# 4A 4E\	8b#X\L	.
.	8cc#\	.
.	8qcc#/)	.
4e 4E^>\	8.gg#^>\	.
.	16ff#\Jk	.
=56	=56	=56
8AA/	(>8ff#\L	.
8r	8b\J)	.
.	8qcc#/	.
4d 4G# 4E\	8.b\L	.
.	16a#X\Jk	.
4e^> 4E\	4b\	.
!!LO:LB:g=original
=57	=57	=57
*ped	*	*
!LO:TX:a:t=P:problem:w taktach 57-61 przekreślone akordy w kluczu basowym	!	!
8AAA/	8.cc#^>\L	.
8r	.	.
.	16dd\Jk	.
*Xped	*	*
*clefG2	*	*
!	!LO:TX:b:t=cres-cen-do:dur=4q:ext=cd:problem:text with extention lines	!LO:HP:i:b
4gn 4B 4A/	8.dd^>\L	<
.	16ee\Jk	.
4g 4c# 4A/	8.ee^>\L	.
.	16ee#X\Jk	.
*clefF4	*	*
=58	=58	=58
4D\	8.ee#X^>\L	.
.	16ff#\Jk	.
*clefG2	*	*
4f# 4d 4A/	8.ff#^>\L	.
.	16ggn\Jk	[
4b 4d 4A/	(>[<4gg^^>\	.
*clefF4	*	*
=59	=59	=59
4AA/	8gg\L]	.
.	8ff#\J)	.
*clefG2	*	*
4a 4c# 4A/	(>8ff#\L	.
!	!LO:TX:a:t=P:problem:przekreślone b	!
.	8a\J)	.
4gn 4c# 4A/	(>8a\L	.
.	8ee\J)	.
*clefF4	*	*
=60	=60	=60
4D\	(>8ee\L	.
.	8dd\J)	.
*clefG2	*	*
.	8qee/	.
4f# 4d 4A/	8.dd\L	.
.	16cc#\Jk	.
4f# 4d 4A/	4dd\	.
*clefF4	*	*
=61	=61	=61
*ped	*	*
!	!LO:TX:b:t=cres-cen-do:dur=4qe:ext=cd:problem:text with extention lines	!LO:HP:b:i
4BB/	8.dd#X^>\L	<
.	16ee\Jk	.
*Xped	*	*
*clefG2	*	*
4a 4c# 4B/	8.ee^>\L	.
.	16ff#\Jk	.
4a 4d#X 4B/	8.ff#^>\L	.
.	16ff##X\Jk	.
*clefF4	*	*
=62	=62	=62
4E\	8.ff##X^>\L	.
.	16gg#\Jk	.
*clefG2	*	*
4g# 4e 4B/	8.gg#^>\L	[
.	16aa\Jk	.
!	!LO:TX:a:t=P:problem:brak rozpoczęcia łuku	!
4cc# 4e 4B^>/	(>[>4aa^^>\	.
*clefF4	*	*
!!LO:LB:g=original
=63	=63	=63
!	!	!LO:DY:b
4BB/	8aa\L]	pp
.	8gg#\J)	.
*clefG2	*	*
4b 4d#X 4B/	(>8gg#\L	.
.	8b\J)	.
4a 4d# 4B/	(>8b\L	.
.	8ff#\J)	.
*clefF4	*	*
=64	=64	=64
4E\	(>8ff#\L	.
.	8ee\J)	.
*clefG2	*	*
.	8qff#/	.
4g# 4e 4B/	8.ee\L	.
.	16dd#X\Jk	.
4e 4B 4G#/	4ee\	.
*clefF4	*	*
=65	=65	=65
*^	*	*
*ped	*	*	*
4r	(<2EE^<\	(>4.gg# 4.ee^^>\	.
4G# 4BB/	.	.	.
*Xped	*	*	*
!	!	!LO:TX:b:t=cres-cen-do:dur=6q:ext=cd:problem:text with extention lines	!LO:HP:b:i
.	.	8ff#|>L 8ddn\)	<
!LO:TX:a:t=P:problem:w źródle 4D przekreślone czerwoną kredką	!	!	!
4A 4D/	4FF#\	8dd|> 8a\	.
.	.	8ff#|>J 8dd\	.
=66	=66	=66	=66
*	*	*^	*
*ped	*	*	*	*
4r	2GG#\	(>8ff#/L	4dd\	.
.	.	8ee/J)	.	.
.	.	8qff#/	.	.
4B 4E/	.	8ee/L	4b\	.
*Xped	*	*	*	*
.	.	8dd#X/J	.	.
!LO:TX:a:t=P:problem:w źródle 4E przekreślone czerwoną kredką	!	!	!	!
4c# 4E/	4AA\	(<8ee/L	4a\	.
.	.	8aa/J)	.	.
*	*	*v	*v	*
=67	=67	=67	=67
*ped	*	*	*
4ryy	2BB\	(>4.aa 4.ee 4.dd 4.a^>\	.
4d 4E/	.	.	.
*Xped	*	*	*
.	.	8gg#|>L 8g#\	[
4d#X/	4BB#X\	8ff##X|> 8f##X\	.
.	.	8gg#|>J 8g#\)	.
=68	=68	=68	=68
!	!	!	!LO:DY:b
*ped	*	*	*
4r	2C#\	(>8bbL 8b\	f
.	.	8aaJ 8a\)	.
.	.	8qbb/	.
*Xped	*	*	*
4e 4A/	.	8.aaL 8.a\	.
.	.	16gg#Jk 16g#\	.
!LO:TX:a:t=P:problem:w źródle 4E przekreślone czerwoną kredką	!	!	!
4c# 4E/	4AA\)	4aa 4a\	.
!!LO:PB:g=original
=69	=69	=69	=69
*	*	*^	*
!	!	!	!	!LO:DY:b
*ped	*	*	*	*
4r	2D\	(<8aa/L	4ryy	p
.	.	8b/J)	.	.
4f# 4B 4A^</	.	(>4.b/	2a\	.
4r	(>4D\	.	.	.
*Xped	*	*	*	*
.	.	8aa/)	.	.
=70	=70	=70	=70	=70
*ped	*	*	*	*
4r	2D#X\)	(<8aa/L	4ryy	.
.	.	8b/J)	.	.
4f# 4B 4A^</	.	(>4.b/	2a\	.
*Xped	*	*	*	*
4ryy	(>4D#\	.	.	.
.	.	8ff#/)	.	.
*v	*v	*	*	*
*	*v	*v	*
=71	=71	=71
4E\)	(>8ff#T>\L	.
.	8ee\	.
4e 4B 4G#\	8gg# 8ee'>\	.
.	8ff# 8dd'>\	.
4E\	8ee 8cc#'>\	.
.	8ddJ 8b'>\	.
=72	=72	=72
4A\	8cc#L 8a'>\	.
.	8dd 8b'>\	.
4e'>\	8ee 8cc#'>\	.
.	8ff#J 8dd'>\	.
4E'>\	4ee 4cc#'>\)	.
=73	=73	=73
*	*^	*
!	!LO:TX:a:t=P:problem:akcent bezpośrednio pod 4.ee	!	!LO:DY:b:rj
*ped	*	*	*
4E 4EE^</	4.gg#^< 4.ee/	(<2g#\	f
4e 4B 4G#\	.	.	.
*Xped	*	*	*
.	8ff#|>L 8dd/	.	.
4F# 4FF#^</	8dd|>/	4a\	.
.	8ff#|>J 8dd/	.	.
!LO:TX:b:t=6:color=blue	!	!	!
=74	=74	=74	=74
*ped	*	*	*
4G# 4GG#^</	(<8ff#^>/L	2b\	.
.	8ee/J)	.	.
.	8qff#/	.	.
4e 4B 4G#\	(>8ee/L	.	.
*Xped	*	*	*
.	8dd#X/	.	.
4A 4AA^</	8ee/	4cc#\	.
.	8aa/J)	.	.
=75	=75	=75	=75
*ped	*	*	*
4B 4BB^>\	(>4.aa^>/	2dd\	.
4e 4d 4B\	.	.	.
*Xped	*	*	*
.	8gg#|>/L)	.	.
4B#X 4BB#X^>\	8ff##X|>/	4dd#X\	.
.	8gg#|>/J	.	.
!!LO:LB:g=original
=76	=76	=76	=76
*ped	*	*	*
4c# 4C#^>\	(>8bb/L	2ee\	.
.	8aa/J)	.	.
.	8qbb/	.	.
*Xped	*	*	*
4e 4c#'>\	8.aa/L	.	.
.	16gg#/Jk	.	.
4A 4AA'</	4aa/	4cc#\)	.
=77	=77	=77	=77
*^	*	*	*
*	*^	*	*	*
*	*	*	*	*	*^
!	!	!	!	!	!	!LO:DY:b:rj
*ped	*	*	*	*	*	*
4r	(<2D\	4ryy	(>8aa/L	4a\	.	p
!	!	!	!	!	!LO:HP:b=2	!
.	.	.	8b/J)	.	<	.
(<4f#/	.	2A\	(>4.b/	2a\	.	.
*Xped	*	*	*	*	*	*
!	!	!	!LO:TX:b:t=cres-cen-do:dur=6qe:ext=cd:problem:text with extention lines	!	!	!LO:HP:b:i
.	.	.	.	.	.	<
4fn/)	4D#X\	.	.	.	.	.
.	.	.	8aa/)	.	.	.
=78	=78	=78	=78	=78	=78	=78
*ped	*	*	*	*	*	*
4r	2E\	4ryy	(>8aa/L	4a\	.	.
.	.	.	8b/J)	.	.	.
(<4e/	.	2A\	(>4.b/	2a\	.	.
*Xped	*	*	*	*	*	*
.	.	.	.	.	.	.
4d#X/)	4E#X\)	.	.	.	.	.
.	.	.	8aa/)	.	[	[
*	*	*	*	*	*v	*v
*	*v	*v	*	*	*
*	*	*v	*v	*
=79	=79	=79	=79
!	!	!	!LO:DY:b
*ped	*	*	*
4rf	2F#^>\	(<8aa/L	f
.	.	8ccnJ 8a/)	.
4d#X 4B#X^^> 4A^</	.	4cc 4a^^>/	.
4rf	[<4D#X^>\	(<8ff#/L	.
.	.	8aJ 8f#/)	.
=80	=80	=80	=80
4B#X^^> 4A 4F#/	4D#\]	4a 4f#^^>/	.
4rf	2BB#X^>\	(<8dd#X/L	.
.	.	8f#J 8d#X/)	.
4A 4F# 4D#X^^>/	.	4f# 4d#^^>/	.
*Xped	*	*	*
.	.	.	.
*v	*v	*	*
=81||	=81||	=81||
*k[b-e-a-d-g-]	*k[b-e-a-d-g-]	*
*^	*	*
!	!LO:TX:i:a:t=una corda:color=red	!LO:TX:i:a:t=ad libit	!LO:DY:b=2:rj
*ped	*	*	*
!	!	!LO:TX:a:t=P:problem:znaki przykluczowe:fn, ccn, gn, b-, ee-, a-, dd-, g-	!
[>2.c [>2.G- [>2.E-;>/	[<2.AA-\	4r	p
.	.	4r;>	.
!	!	!	!LO:DY:b:rj
.	.	8.e-/L	ppp
.	.	16a-/Jk	.
!!LO:LB:g=original
=82	=82	=82	=82
!	!LO:N:vis=2	!	!
2.c_> 2.G-_> 2.E-/_>	2.AA-\_<	8.a-\L	.
.	.	16b-\Jk	.
.	.	8.b-\L	.
.	.	16cc\Jk	.
.	.	8.cc\L	.
.	.	16ee-\Jk	.
=83	=83	=83	=83
!LO:N:n=2:vis=2	!	!	!
!LO:N:n=3:vis=2	!	!	!
2.c_> 2.G-_> 2.E-/_>	2.AA-\_<	(>4.ee-\	.
.	.	8cc\L)	.
.	.	8b-|>\	.
.	.	8a-|>\J	.
=84	=84	=84	=84
(>2c] 2G-] 2E-/]	2.AA-\]	(<8b-/L	.
.	.	8e-/J)	.
*Xped	*	*	*
.	.	[<2e-^</	.
*ped	*	*	*
[>4B- [>4G- [<4D-/	.	.	.
=85	=85	=85	=85
!	!	!	!LO:DY:b=2:rj
2.B-_> 2.G-_> 2.D-/_>	[<2.AA-^<\	4e-/]	p
.	.	8.e-/L	.
.	.	16a-/Jk	.
.	.	8.a-\L	.
.	.	16b-\Jk	.
=86	=86	=86	=86
2.B-] 2.G-] 2.D-/]	2.AA-\_<	8.b-\L	.
.	.	16cc\Jk	.
.	.	(>8cc\L	.
.	.	8aa-\J)	.
.	.	(>[>4ee-\	.
*Xped	*	*	*
.	.	.	.
=87	=87	=87	=87
*ped	*	*	*
!	!LO:TX:b:t=P:problem:brak zakończenia ligatury	!	!
[>2.A-/ [>2.G-/ [>2.C/	[<2.AA-\]	4.ee-\]	.
!	!	!LO:TX:i:b:t=riten&colon;	!
.	.	8cc\L)	.
.	.	8qcc/	.
.	.	8.b-\	.
.	.	16a-\Jk	.
!!LO:LB:g=original
=88	=88	=88	=88
4A-] 4G-] 4C/]	2.AA-\]	[<2.cc;>\	.
(<4c 4G- 4E-/)	.	.	.
*Xped	*	*	*
.	.	.	.
4r;>	.	.	.
*v	*v	*	*
.	(<8qqcc/L]	.
.	8qqdd-'</	.
.	8qqddn'</	.
.	8qqee-'</	.
!	!LO:TX:i:b:t=senza sordini:color=red	!
.	8qqeen'</J	.
=89	=89	=89
!	!LO:TX:i:a:t=a tempo 1mo	!LO:DY:b
4AAn/)	(>8ff\L)	pp
.	8gg-\J)	.
4e- 4c 4F\	(>4.gg-^>\	.
(<4AA/	.	.
.	8ff\)	.
=90	=90	=90
4BB-/)	(>8ff\L	.
.	8ddd-\J)	.
(>4d- 4B- 4F\	(>4.ddd-^>\	.
8BB-/)	.	.
8r	8ccc\)	.
=91	=91	=91
!	!LO:TX:b:B:t=A = B.	!
4ryy	(>8ccc\Lyy	.
.	8bb-\J)yy	.
.	8qccc/yy	.
*ped	*	*
(>4B-yy 4Enyy 4D-\yy	(>8bb-\Lyy	.
.	8aan\yy	.
*Xped	*	*
8GGn/)yy	8bb-\yy	.
8ryy	8ccc\Jyy	.
=92	=92	=92
4ryy	8ddd-^>\Lyy	.
.	8ff\J)yy	.
*ped	*	*
(>4d-yy 4A-yy 4F\yy	2aa-\yy	.
*Xped	*	*
8AA-/)yy	.	.
8ryy	.	.
=93	=93	=93
4ryy	(>8aa-\Lyy	.
.	8bb-\J)yy	.
*ped	*	*
(>4e-yy 4cyy 4G-\yy	4.bb-^>\yy	.
*Xped	*	*
8AA-/)yy	.	.
8ryy	8aa-\yy	.
=94	=94	=94
4ryy	(>8aa-\Lyy	.
.	8ddd-\J)yy	.
*ped	*	*
4fyy 4d-yy 4A-yy 4F\yy	4.ddd-^>\yy	.
[>4fyy [>4d-yy [>4B-\yy	.	.
.	8ff\yy	.
=95	=95	=95
*Xped	*	*
4f]yy 4d-]yy 4B-\]yy	(>8ff\Lyy	.
.	8ee-\J)yy	.
.	8qff/yy	.
4e-yy 4B-yy 4G-\yy	(>8ee-\Lyy	.
.	8dd-\yy	.
!LO:TX:a:t=P:problem:brak zakończenia ligatur	!	!
[>4g-yy [>4e-yy [>4A-\yy	8cc\yy	.
.	8aa-\J)yy	.
=96	=96	=96
*^	*	*
4g-]yy 4e-]yy 4A-\]yy	4ryy	(>8aa-\Lyy	.
.	.	8dd-\Jyy	.
*ped	*	*	*
4f:yy 4A-:/yy	(>4D-:\yy	2ff\)yy	.
*Xped	*	*	*
4rdyy	8C\Lyy	.	.
.	8BB-\J)yy	.	.
*v	*v	*	*
=97	=97	=97
4AAn/yy	(>8ff\Lyy	.
.	8gg-\J)yy	.
.	16qqgg-/LLyy	.
.	16qqaa-/JJyy	.
4e-yy 4cyy 4F\yy	4.gg-^>\yy	.
(<4AA/yy	.	.
.	8ff\yy	.
!LO:TX:b:t=7:color=blue	!	!
=98	=98	=98
!	!	!LO:DY:b
*ped	*	*
4BB-/	(>8ff\L	f
.	8fffJ 8ddd-\)	.
4d- 4B- 4F\	4.fff^^> 4.ddd-\	.
4BB-/	.	.
*Xped	*	*
.	8eee- 8ccc\	.
=99	=99	=99
*	*ped	*
4EE-/	(>8eee-L 8ccc\	.
.	8ddd- 8bb-\)	.
.	8qeee-/ 8qccc/	.
4d- 4B- 4G- 4E-\	8ddd- 8bb-'>\	.
*	*Xped	*
.	8ccc 8aan'>\	.
4e- 4d- 4B- 4G-\	8ddd- 8bb-'>\	.
.	8eee-J 8ccc'>\	.
=100	=100	=100
*	*ped	*
4AA-/	(8fffL 8ddd-\	.
.	8ff\J)	.
4d- 4A- 4F\	2aa-^^> 2dd-\	.
4f 4d- 4A-\	.	.
*	*Xped	*
.	.	.
!!LO:LB:g=original
=101	=101	=101
!	!	!LO:DY:b
*	*ped	*
4GG-/	(>8aa-L 8ee- 8cc\	ff
.	8bb-\J)	.
.	8qccc/	.
4c 4A- 4E-\	4.bb-^>\	.
*	*Xped	*
.	.	.
(>4GG- (<4GGG-/	.	.
.	8aa-\	.
=102	=102	=102
*	*ped	*
4FF 4FFF/))	(>8aa-'>\L	.
.	8aaa-'>\J)	.
*clefG2	*	*
!	!	!LO:DY:b
4a- 4d- 4A- 4F;>/	(>[>4aaa- 4ddd- [<4aa-\	sff
*	*Xtuplet	*
*	*rscale:4	*
8r	48aaa-]LLL 48aa-\]	.
!	!	!LO:HP:b
.	48ggg-\	>
.	48ggg-X\	.
.	48fff\	.
.	48eee-\	.
*	*Xped	*
.	48ddd-\	.
!LO:CL:ed	!	!
*clefF4	*	*
*Xtuplet	*	*
*rscale:8	*	*
(>96B-\LLLL	48ccc\	.
96B-X\	.	.
96A-\	48bb-\	.
96G-\	.	.
96F\	48aa-\	.
96E-\	.	.
80D-\	48ggn\	.
80C\	.	.
.	48gg-X\	.
80BBn\	.	.
80BB-X	.	.
.	48ff\JJJ	.
80AA-\JJJJ	.	]
*rscale:1	*rscale:1	*
=103	=103	=103
*clefF4	*	*
*^	*^	*
*	*	*ped	*	*
*coll8ba	*	*	*	*
!LO:TX:b:t=P:coll' ottava mark:problem	!	!	!	!LO:DY:b:rj
4EE-^^>/) 4EEE-	4ryy	(>8ff^>\L)	4ryy	f
!LO:TX:a:t=P:problem:odnośnik do innego miejsca w utworze	!	!	!	!
!LO:TX:a:t=(x):color=red	!	!	!	!
.	.	8ee-\J)	.	.
.	.	8qgg-/	.	.
*Xcoll8ba	*	*Xped	*	*
8g-^>/L	4.d-\	8ee-/L	2b-\	.
8f^>/	.	8dd-X^</	.	.
8g-^>/	.	8ee-^</	.	.
8d-^>/J	8r	8b-^</J	.	.
=104	=104	=104	=104	=104
*	*	*ped	*	*
4AA- 4AAA-/	4ryy	(>8dd-\L	4ryy	.
.	.	8cc\J)	.	.
.	.	8qdd-/	.	.
*	*	*Xped	*	*
!	!LO:N:n=1:vis=4	!	!	!LO:HP:b=2
8e-/L	4.e- 4.A-\	(<8cc/L	(<2g-\	>
8dn/	.	8bn/	.	.
*ped	*	*	*	*
8e-/	.	8cc/	.	.
8AA-J 8AAA-;>/	8ryy	8aa-;>/J)	.	]
*Xped	*	*	*	*
.	.	.	.	.
*v	*v	*	*	*
*	*v	*v	*
=105	=105	=105
!	!	!LO:DY:b:t=p.
*ped	*ped	*
8DD-/L	(>4.dd- 4.f\)	p
8D-/J	.	.
(>8f 8d- 8A-\	.	.
8r	8ff\L	.
4D-^>\)	8aa-\	.
.	8bb-\J	.
!!LO:LB:g=original
=106	=106	=106
!	!LO:TX:b:B:t=C = D	!
(>8fLyy 8d-yy 8A-\yy	8aa-\Lyy	.
8D-\Jyy	8ff\yy	.
*Xped	*	*
8fyy 8d-yy 8A-\)yy	8aa-\yy	.
8ryy	8bb-\)yy	.
*ped	*	*
4D-^>\yy	(>8bb-\yy	.
.	8ddd-\J)yy	.
=107	=107	=107
(>8fLyy 8d-yy 8A-\yy	(>4.ddd-\yy	.
8D-\Jyy	.	.
*Xped	*	*
8fyy 8d-yy 8A-\)yy	.	.
8ryy	8ccc\Lyy	.
*ped	*	*
4D-^>\yy	8aa-\yy	.
.	8bb-\Jyy	.
=108	=108	=108
(>8g-Lyy 8cyy 8A-yy\	4.aa-\yy	.
8D-\Jyy	.	.
*Xped	*	*
8g-yy 8cyy 8A-\)yy	.	.
8ryy	8gg-\Lyy	.
*ped	*	*
4D-^>\yy	8ee-\yy	.
.	8ff\J)yy	.
=109	=109	=109
(>8fLyy 8d-yy 8A-\yy	(>4.dd-\yy	.
8D-\Jyy	.	.
*Xped	*	*
8fyy 8d-yy 8A-\)yy	.	.
8ryy	8ff\Lyy	.
*ped	*	*
4D-^>\yy	8gg-\yy	.
.	8bb-\Jyy	.
=110	=110	=110
.	16qqaa-/LLyy	.
.	16qqbb-/JJyy	.
(>8fLyy 8d-yy 8A-\yy	8aa-\Lyy	.
8D-\Jyy	8ff\)yy	.
*Xped	*	*
8fyy 8d-yy 8A-\)yy	(>8aa-\yy	.
8r	8bb-\)yy	.
*ped	*	*
4D-^>\yy	(>8bb-\yy	.
.	8ddd-\J)yy	.
=111	=111	=111
.	8qddd-/yy	.
(>8fLyy 8d-yy 8A-\yy	(>4.fff^>\yy	.
8D-\Jyy	.	.
*Xped	*	*
8fyy 8d-yy 8A-\)yy	.	.
8ryy	8ddd-\Lyy	.
*ped	*	*
4DD-^</yy	8aa-\yy	.
.	8bb-\Jyy	.
=112	=112	=112
(>8g-Lyy 8e-yy 8A-\yy	4.ddd-^>\yy	.
8D-\Jyy	.	.
*Xped	*	*
8g-yy 8e-yy 8A-\)yy	.	.
8ryy	8ccc\Lyy	.
*ped	*	*
4D-^>\yy	8bb-\yy	.
.	8aa-\J)yy	.
=113	=113	=113
*ped	*	*
(>8fL 8d- 8A-\	4.dd-\	.
8D-\J	.	.
!LO:TX:b:t=di-mi-nu-en-do:dur=8qe:ext=cd:problem:text with extention lines	!	!LO:HP:b=2
8f 8d- 8A-\)	.	>
8r	8aa-\L	.
4D-^>\	(>8.aa-\	.
.	16dd-\Jk)	.
=114	=114	=114
8fL 8d- 8A-\	4.dd-\	.
8D-\J	.	.
8f 8d- 8A-\	.	.
8r	8ddd- 8ff\	.
4DD-^</	(>8.ddd-L 8.ff\	.
.	16a-\Jk)	.
=115	=115	=115
8fL 8d- 8A-\	4.a-\	.
8D-\J	.	.
8f 8d- 8A-\	.	.
8r	8fff 8aa-\	.
4D-^>\	(>8.fffL 8.aa-\	.
.	16dd-\Jk)	.
=116	=116	=116
!	!LO:TX:a:t=P:problem:niepoprawne renderowanie	!
!	!LO:TX:a:t=P:problem:zamazane nuty w źródle	!
!	!LO:TX:b:i:t=una corda	!
8f 8d- 8A-\	8dd-\L	]
16rE	16r	.
*clefG2	*	*
16ff\	16fff\Jk	.
[>2aa-^^>\	[>2aaa-^^>\	.
*Xped	*	*
!	!LO:TX:a:t=P:problem:mixed beam	!LO:DY:b:rj
32qqaa-\LLL]	32qqaaa-\LLL]	ppp
32qqgg-\	32qqggg-\	.
32qqff\	32qqfff\	.
32qqee-\	32qqeee-\	.
32qqdd-\	32qqddd-\	.
32qqcc\	32qqccc\	.
32qqb-\	32qqbb-\	.
32qqa-\	32qqaa-\	.
32qqg-\	32qqgg-\	.
32qqf\	32qqff\	.
32qqe-\	32qqee-\	.
32qqd-\	32qqdd-\	.
*clefF4	*	*
32qqc\	32qqcc\	.
32qqB-\	32qqb-\	.
32qqA-\	32qqa-\	.
32qqG-\	32qqg-\	.
32qqF\	32qqf\	.
32qqE-\	32qqe-\	.
32qqD-\	32qqd-\	.
32qqC\	32qqc</	.
32qqBB-\	32qqB-</	.
32qqAA-\	32qqA-</	.
32qqGG-\	32qqG-</	.
32qqFF\	32qqF</	.
32qqEE-\JJJ	32qqE-</JJJ	.
!LO:CL:ed	!	!
*clefG2	*	*
=117	=117	=117
*ped	*	*
8B-\	8D-</	.
8ryy	8ryy	.
*	*8va	*
!	!LO:TX:a:t=P:problem:Arpeggio w źródle przez obie pięciolinie	!LO:DY:b:rj
8ff: 8dd-: 8a-: 8f:/	8dddd-: 8aaa-: 8ddd-:\	pp
*	*X8va	*
8r	8r	.
4r;>	4r;>	.
==	==	==
*-	*-	*-
!!!system-decoration: {(s1,s2)}
!!!RDF**kern: > = above
!!!RDF**kern: < = below
!!!RDF**kern: | = vertical stroke
!!!RDF**kern: @ = marked note, color="blue"
!!!EED: Antoni Szymański
!!!EST: 2021-06-03
!!!AIN: 2 piano
!!!ENC: Berenika Jozajtis
!!!END: 2021-03-28
